svg/Filled/chevron-back_filled.svg

<svg viewBox="0 0 24 24" xmlns="http://www.w3.org/2000/svg" width="24" height="24"><path d="M13.36 5.44a1.2 1.2 0 0 1 1.7 1.7l-4.58 4.58-.25.25-.03.04.03.03.25.25 4.58 4.59.08.09a1.2 1.2 0 0 1-1.69 1.68l-.09-.08L8.78 14q-.29-.28-.52-.55a2 2 0 0 1-.44-.75 2.2 2.2 0 0 1 0-1.36l.04-.12c.1-.27.26-.47.4-.64q.23-.26.52-.54z"/></svg>

<svg viewBox="0 0 24 24" xmlns="http://www.w3.org/2000/svg" width="24" height="24"><path d="M13.36 5.44A1.2 1.2 0 0 1 15.06 7.14L10.23 12.04L15.14 16.97A1.2 1.2 0 0 1 13.45 18.65L8.78 14Q8.49 13.72 8.26 13.45A2 2 0 0 1 7.82 12.7A2.2 2.2 0 0 1 7.82 11.34L7.86 11.22C7.96 10.95 8.12 10.75 8.26 10.58Q8.49 10.32 8.78 10.04Z"/></svg>
